X: 11915
T: Emmett's Revenge
R: polka
M: 2/4
K: Gmajor
|:G>A BB,|G,B, DG|E>A cA|FD dB|
G>A BG,|B,D G>F|EA dF|1 AG GF:|2 AG G2||
K: Emin
|:E>F GA|BE EB|A d2 d-|dB AF|
E>F GA|BE E2|B2 AF-|FD AF:|

